X: 1
T: Rosin The Bow
R: jig
M: 6/8
L: 1/8
K: Gmaj
D|GAG BAG|Bcd efg|dBG GAB|"tr" E3-E2 D|
GAG BAG|Bcd efg|dBG AGA|G3 G2:|
|:B/2c/2|dBd dBd|g2 e g2 e|dBG GAB|E3-E2 D|
GAG BAG|Bcd efg|1dBG AGA|G3 G2:|2baf agf|g3 g2||


Tune 7639	Setting 27530

